X: 88
T: Zhai putao
L: 1/16
M: 2/4
K: F
c2 f2 c2 A2 [I:setbarnb 1]| 
c A c df4 | 
a2 g af4 | 
d c d fc4 | 
d c d fc4 | 
F G A GA4 | 
c d c AG4 | 
c A c2 d c A G | 
F8 | 
a2 g af4 | 
d c d fc4 | 
d c d fc4 | 
f f d c f f d c | 
A c d fc4 | 
f d f2 d f d c | 
A2 G2 c c A G | 
F8 |]

@@@ Tune index: 8962
